assets/svg/wallet_icon_wallet_noaccesscamera.svg

<svg width="80" height="80" viewBox="0 0 80 80" fill="none" xmlns="http://www.w3.org/2000/svg">
    <path
        d="M40.1023 8.05312H28.6195C27.6789 8.05312 26.843 7.45156 26.5445 6.55781L25.1914 2.5H43.532L42.1789 6.55781C42.0332 6.99328 41.7544 7.37195 41.3817 7.64028C41.0091 7.90861 40.5615 8.05303 40.1023 8.05312ZM50.3586 68.1021V70.5203C50.3586 72.8641 48.4586 74.7641 46.1148 74.7641H27.3555C25.8461 74.7641 24.6211 75.9891 24.6211 77.4984H46.1148C49.9695 77.4984 53.093 74.3734 53.093 70.5203V69.188L50.3586 68.1021Z"
        fill="#E1EAF8" />
    <path
        d="M46.1129 78.0463H22.6051C18.4551 78.0463 15.0801 74.6697 15.0801 70.5213V61.79C15.0801 61.4885 15.3254 61.2432 15.627 61.2432C15.9285 61.2432 16.1738 61.4885 16.1738 61.79V70.5213C16.1738 74.0682 19.0598 76.9525 22.6051 76.9525H46.1129C49.6598 76.9525 52.5441 74.0666 52.5441 70.5213V69.189C52.5441 68.8874 52.7895 68.6421 53.091 68.6421C53.3926 68.6421 53.6379 68.8874 53.6379 69.189V70.5213C53.6379 74.6697 50.2629 78.0463 46.1129 78.0463Z"
        fill="#9A9A9A" />
    <path
        d="M52.5441 9.47812V33.024C52.5441 33.3255 52.7895 33.5708 53.091 33.5708C53.3926 33.5708 53.6379 33.3255 53.6379 33.024V9.47812C53.6379 5.32812 50.2613 1.95312 46.1129 1.95312H22.6051C18.4551 1.95312 15.0801 5.32969 15.0801 9.47812V57.5375C15.0801 57.8391 15.3254 58.0844 15.627 58.0844C15.9285 58.0844 16.1738 57.8391 16.1738 57.5375V9.47812C16.1738 5.93125 19.0598 3.04688 22.6051 3.04688H46.1129C49.6598 3.04688 52.5441 5.93281 52.5441 9.47812Z"
        fill="#9A9A9A" />
    <path
        d="M36.3133 44.7314C36.2321 44.7314 36.1492 44.7127 36.0711 44.6752L32.4242 42.8674C32.2969 42.8014 32.2006 42.6881 32.156 42.5518C32.1114 42.4155 32.1222 42.2672 32.1859 42.1388C32.2496 42.0103 32.3612 41.912 32.4967 41.8651C32.6321 41.8181 32.7806 41.8262 32.9102 41.8877L36.5555 43.6939C36.6854 43.7584 36.7844 43.8718 36.8307 44.0092C36.877 44.1466 36.8668 44.2968 36.8024 44.4267C36.7574 44.5181 36.6878 44.595 36.6013 44.6489C36.5149 44.7027 36.4151 44.7313 36.3133 44.7314ZM32.8867 58.9064C32.6852 58.9064 32.4899 58.7939 32.3946 58.6002C32.3309 58.47 32.3214 58.3199 32.3683 58.1828C32.4151 58.0457 32.5145 57.9328 32.6446 57.8689L36.2992 56.0783C36.4294 56.0146 36.5795 56.0051 36.7166 56.052C36.8537 56.0989 36.9666 56.1982 37.0305 56.3283C37.0942 56.4584 37.1036 56.6085 37.0568 56.7456C37.0099 56.8827 36.9105 56.9956 36.7805 57.0595L33.1274 58.8502C33.0492 58.8892 32.9664 58.9064 32.8867 58.9064ZM70.3086 42.1694C70.1196 42.1694 69.9352 42.071 69.8336 41.8944C69.7978 41.8322 69.7745 41.7635 69.7653 41.6922C69.756 41.621 69.7609 41.5486 69.7796 41.4792C69.7983 41.4099 69.8305 41.3449 69.8744 41.288C69.9182 41.231 69.9729 41.1833 70.0352 41.1476L73.5617 39.1194C73.6874 39.0485 73.8361 39.0301 73.9753 39.0682C74.1145 39.1064 74.233 39.198 74.3049 39.3231C74.3769 39.4483 74.3964 39.5968 74.3594 39.7363C74.3223 39.8758 74.2316 39.995 74.1071 40.0679L70.5805 42.096C70.4961 42.146 70.4008 42.1694 70.3086 42.1694ZM59.8852 35.4772C59.8072 35.4774 59.7302 35.4609 59.6591 35.4288C59.5881 35.3967 59.5248 35.3498 59.4734 35.2912C59.422 35.2325 59.3838 35.1636 59.3613 35.089C59.3388 35.0143 59.3326 34.9357 59.343 34.8585L59.8836 30.8257C59.9242 30.5257 60.1992 30.3147 60.4977 30.3569C60.7977 30.3976 61.0071 30.6726 60.9664 30.971L60.4258 35.0038C60.4081 35.1347 60.3436 35.2548 60.2442 35.3418C60.1448 35.4289 60.0173 35.477 59.8852 35.4772Z"
        fill="#FD4E4E" />
    <path
        d="M52 40C45.3719 40 40 45.3732 40 52C40 58.6281 45.3732 64 52 64C58.6281 64 64 58.6268 64 52C64 45.3719 58.6281 40 52 40ZM58.6629 57.3848C58.8322 57.5544 58.9273 57.7843 58.9273 58.0239C58.9273 58.2635 58.8322 58.4933 58.6629 58.6629C58.4861 58.8398 58.255 58.9276 58.0239 58.9276C57.7928 58.9276 57.5617 58.8398 57.3848 58.6629L52 53.2781L46.6152 58.6629C46.4383 58.8398 46.2072 58.9276 45.9761 58.9276C45.745 58.9276 45.5139 58.8398 45.3371 58.6629C45.1678 58.4933 45.0727 58.2635 45.0727 58.0239C45.0727 57.7843 45.1678 57.5544 45.3371 57.3848L50.7219 52L45.3371 46.6152C44.9846 46.2627 44.9846 45.6895 45.3371 45.3371C45.6895 44.9846 46.2627 44.9846 46.6152 45.3371L52 50.7219L57.3848 45.3371C57.7373 44.9846 58.3105 44.9846 58.6629 45.3371C59.0154 45.6895 59.0154 46.2627 58.6629 46.6152L53.2781 52L58.6629 57.3848Z"
        fill="#FD4E4E" />
    <path fill-rule="evenodd" clip-rule="evenodd"
        d="M36.2222 31.5H31.7778C28.6568 31.5 27.0962 31.5 25.9752 30.785C25.49 30.4755 25.0733 30.0778 24.749 29.6145C24 28.5445 24 27.0549 24 24.0758C24 21.0966 24 19.607 24.749 18.537C25.0733 18.0737 25.49 17.676 25.9752 17.3665C26.6956 16.9071 27.5973 16.7429 28.978 16.6842C29.6369 16.6842 30.2041 16.2076 30.3333 15.5909C30.5272 14.6659 31.3781 14 32.3663 14H35.6337C36.6219 14 37.4728 14.6659 37.6667 15.5909C37.7959 16.2076 38.3631 16.6842 39.022 16.6842C40.4027 16.7429 41.3044 16.9071 42.0248 17.3665C42.51 17.676 42.9267 18.0737 43.251 18.537C44 19.607 44 21.0966 44 24.0758C44 27.0549 44 28.5445 43.251 29.6145C42.9267 30.0778 42.51 30.4755 42.0248 30.785C40.9038 31.5 39.3432 31.5 36.2222 31.5ZM40.0017 19.9741C39.5415 19.9741 39.1684 20.3472 39.1684 20.8075C39.1684 21.2677 39.5415 21.6408 40.0017 21.6408H41.0017C41.4619 21.6408 41.835 21.2677 41.835 20.8075C41.835 20.3472 41.4619 19.9741 41.0017 19.9741H40.0017ZM34.0007 26.6405C35.6576 26.6405 37.0007 25.3347 37.0007 23.7238C37.0007 22.113 35.6576 20.8072 34.0007 20.8072C32.3439 20.8072 31.0007 22.113 31.0007 23.7238C31.0007 25.3347 32.3439 26.6405 34.0007 26.6405Z"
        fill="#9A9A9A" />
</svg>

<svg xmlns="http://www.w3.org/2000/svg" width="80" height="80" fill="none"><path fill="#E1EAF8" d="M40.102 8.053H28.62c-.941 0-1.777-.601-2.076-1.495L25.191 2.5h18.341l-1.353 4.058a2.19 2.19 0 0 1-2.077 1.495m10.257 60.05v2.417c0 2.344-1.9 4.244-4.244 4.244h-18.76a2.735 2.735 0 0 0-2.734 2.734h21.494a6.98 6.98 0 0 0 6.978-6.978v-1.332z"/><path fill="#9A9A9A" d="M46.113 78.046H22.605c-4.15 0-7.525-3.376-7.525-7.525V61.79a.547.547 0 0 1 1.094 0v8.731a6.44 6.44 0 0 0 6.431 6.432h23.508a6.44 6.44 0 0 0 6.431-6.432V69.19a.548.548 0 0 1 1.094 0v1.332c0 4.149-3.375 7.525-7.525 7.525M52.544 9.478v23.546a.548.548 0 0 0 1.094 0V9.478c0-4.15-3.377-7.525-7.525-7.525H22.605c-4.15 0-7.525 3.377-7.525 7.525v48.06a.547.547 0 0 0 1.094 0V9.478a6.44 6.44 0 0 1 6.431-6.431h23.508a6.44 6.44 0 0 1 6.431 6.431"/><path fill="#FD4E4E" d="M36.313 44.731a.6.6 0 0 1-.242-.056l-3.647-1.808a.547.547 0 0 1 .486-.98l3.646 1.807a.547.547 0 0 1-.243 1.037m-3.426 14.175a.55.55 0 0 1-.519-.723.55.55 0 0 1 .277-.314l3.654-1.79a.547.547 0 0 1 .482.98l-3.654 1.791a.54.54 0 0 1-.24.056M70.309 42.17a.547.547 0 0 1-.274-1.021l3.527-2.029a.548.548 0 0 1 .545.949l-3.526 2.028a.54.54 0 0 1-.272.073m-10.424-6.692a.546.546 0 0 1-.542-.618l.54-4.033a.546.546 0 1 1 1.083.145l-.54 4.033a.55.55 0 0 1-.54.473M52 40c-6.628 0-12 5.373-12 12 0 6.628 5.373 12 12 12 6.628 0 12-5.373 12-12 0-6.628-5.372-12-12-12m6.663 17.385a.905.905 0 0 1-1.278 1.278L52 53.278l-5.385 5.385a.9.9 0 0 1-1.278 0 .904.904 0 0 1 0-1.278L50.722 52l-5.385-5.385a.905.905 0 0 1 1.278-1.278L52 50.722l5.385-5.385a.905.905 0 0 1 1.278 1.278L53.278 52z"/><path fill="#9A9A9A" fill-rule="evenodd" d="M36.222 31.5h-4.444c-3.121 0-4.682 0-5.803-.715a4.4 4.4 0 0 1-1.226-1.17C24 28.545 24 27.055 24 24.075c0-2.978 0-4.468.749-5.538a4.4 4.4 0 0 1 1.226-1.17c.72-.46 1.622-.624 3.003-.683.659 0 1.226-.476 1.355-1.093.194-.925 1.045-1.591 2.033-1.591h3.268c.988 0 1.839.666 2.033 1.59.129.618.696 1.094 1.355 1.094 1.38.059 2.282.223 3.003.682.485.31.902.708 1.226 1.171.749 1.07.749 2.56.749 5.539s0 4.468-.749 5.538a4.4 4.4 0 0 1-1.226 1.171c-1.121.715-2.682.715-5.803.715m3.78-11.526a.833.833 0 0 0 0 1.667h1a.833.833 0 0 0 0-1.667zM34 26.64c1.657 0 3-1.305 3-2.916s-1.343-2.917-3-2.917-3 1.306-3 2.917 1.343 2.916 3 2.916" clip-rule="evenodd"/></svg>
